static/img/ruby.svg

<svg width="512" height="512" viewBox="0 0 512 512" fill="none"
	xmlns="http://www.w3.org/2000/svg">
	<path d="M493.725 160.831C493.704 161.03 493.683 161.239 493.662 161.447C492.251 174.101 488.26 187.716 481.886 201.843L481.876 201.853L371.66 482.304L76.4549 413.069C72.8289 412.358 69.3079 411.533 65.9019 410.593C59.1209 408.754 52.8089 406.507 46.9999 403.864C46.9999 403.864 46.9999 403.864 46.9899 403.864C29.2479 378.818 15.8829 350.449 8.03589 319.875C8.91389 316.207 10.3239 310.544 12.1839 303.585C19.3519 276.742 33.2799 230.735 50.0199 206.545L51.6499 262.51L161.949 269.866L311.463 198.782L376.006 104.01L347.418 58.2539C395.107 69.8209 425.326 80.2699 444.353 88.5139C447.509 89.8719 450.351 91.1779 452.911 92.4109C472.022 101.637 475.69 107.249 475.69 107.249C481.991 112.557 486.714 118.785 489.587 125.911C493.767 136.255 495.073 148.052 493.725 160.831Z" fill="#9B0A0E"/>
	<path d="M356.676 83.7779C338.138 47.2626 256.329 51.564 173.952 93.3855C91.5748 135.207 39.823 198.712 58.3611 235.227C76.8993 271.742 158.708 267.441 241.085 225.619C323.462 183.798 375.214 120.293 356.676 83.7779Z" fill="#EF0E13"/>
	<path d="M301.18 369.117L371.656 482.308L186.004 409.438C222.656 401.872 262.012 388.497 301.18 369.117Z" fill="#F5655E"/>
	<path d="M50.0191 206.546L51.6531 262.512L12.1831 303.584C19.3561 276.744 33.2781 230.737 50.0191 206.546Z" fill="#F5655E"/>
	<path d="M51.6489 262.51L17.7629 349.884C13.9279 340.156 10.6679 330.146 8.03491 319.875C8.03491 319.875 8.03491 319.875 8.03491 319.865C8.92291 316.197 10.3229 310.534 12.1829 303.586L51.6489 262.51Z" fill="#950C10"/>
	<path d="M376.012 104.009L493.663 161.446C492.249 174.102 488.263 187.714 481.882 201.848L481.874 201.856C477.103 212.445 470.983 223.328 463.613 234.308L376.012 104.009Z" fill="#950C10"/>
	<path d="M481.873 201.856L371.657 482.306L399.885 304.432C426.307 281.825 447.836 257.837 463.613 234.307C470.983 223.326 477.101 212.443 481.873 201.856Z" fill="#EF0E13"/>
	<path d="M376.012 104.009L463.613 234.308L311.466 198.785L376.012 104.009Z" fill="#EF0E13"/>
	<path d="M444.355 88.51L376.011 104.009L347.415 58.248C395.105 69.825 425.327 80.267 444.355 88.51Z" fill="#F5655E"/>
	<path d="M311.466 198.785L399.884 304.435C373.29 327.197 341.745 348.562 306.098 366.66C304.455 367.494 302.822 368.31 301.18 369.12L311.466 198.785Z" fill="#950C10"/>
	<path d="M311.466 198.785L301.18 369.117L161.951 269.865L311.466 198.785Z" fill="#EF0E13"/>
	<path d="M161.951 269.865L301.179 369.117C262.011 388.497 222.655 401.871 186.003 409.438L161.951 269.865Z" fill="#950C10"/>
	<path d="M161.951 269.865L65.9021 410.598L51.6531 262.512L161.951 269.865Z" fill="#F5655E"/>
</svg>

<svg width="512" height="512" fill="none" xmlns="http://www.w3.org/2000/svg"><path d="m493.725 160.831-.063.616c-1.411 12.654-5.402 26.269-11.776 40.396l-.01.01L371.66 482.304 76.455 413.069a143.392 143.392 0 0 1-10.553-2.476c-6.781-1.839-13.093-4.086-18.902-6.729h-.01c-17.742-25.046-31.107-53.415-38.954-83.989a659.198 659.198 0 0 1 4.148-16.29c7.168-26.843 21.096-72.85 37.836-97.04l1.63 55.965 110.299 7.356 149.514-71.084 64.543-94.772-28.588-45.756c47.689 11.567 77.908 22.016 96.935 30.26a220.759 220.759 0 0 1 8.558 3.897c19.111 9.226 22.779 14.838 22.779 14.838 6.301 5.308 11.024 11.536 13.897 18.662 4.18 10.344 5.486 22.141 4.138 34.92Z" fill="#9B0A0E"/><path d="M356.676 83.778c-18.538-36.515-100.347-32.214-182.724 9.607-82.377 41.822-134.129 105.327-115.59 141.842 18.537 36.515 100.346 32.214 182.723-9.608 82.377-41.821 134.129-105.326 115.591-141.841Z" fill="#EF0E13"/><path d="m301.18 369.117 70.476 113.191-185.652-72.87c36.652-7.566 76.008-20.941 115.176-40.321ZM50.02 206.546l1.633 55.966-39.47 41.072c7.173-26.84 21.095-72.847 37.836-97.038Z" fill="#F5655E"/><path d="m51.649 262.51-33.886 87.374a253.298 253.298 0 0 1-9.728-30.009v-.01a695.99 695.99 0 0 1 4.148-16.279l39.466-41.076Zm324.363-158.501 117.651 57.437c-1.414 12.656-5.4 26.268-11.781 40.402l-.008.008c-4.771 10.589-10.891 21.472-18.261 32.452l-87.601-130.299Z" fill="#950C10"/><path d="m481.873 201.856-110.216 280.45 28.228-177.874c26.422-22.607 47.951-46.595 63.728-70.125 7.37-10.981 13.488-21.864 18.26-32.451Z" fill="#EF0E13"/><path d="m376.012 104.009 87.601 130.299-152.147-35.523 64.546-94.776Z" fill="#EF0E13"/><path d="m444.355 88.51-68.344 15.499-28.596-45.761c47.69 11.577 77.912 22.019 96.94 30.262Z" fill="#F5655E"/><path d="m311.466 198.785 88.418 105.65c-26.594 22.762-58.139 44.127-93.786 62.225-1.643.834-3.276 1.65-4.918 2.46l10.286-170.335Z" fill="#950C10"/><path d="M311.466 198.785 301.18 369.117l-139.229-99.252 149.515-71.08Z" fill="#EF0E13"/><path d="m161.951 269.865 139.228 99.252c-39.168 19.38-78.524 32.754-115.176 40.321l-24.052-139.573Z" fill="#950C10"/><path d="M161.951 269.865 65.902 410.598 51.653 262.512l110.298 7.353Z" fill="#F5655E"/></svg>
